X: 1
T:Scotland The Brave  "CCPB Sep-1995"
M:C
L:1/8
Q:80
C:Trad.
S:March
K:HP
[| e|
{g}A2{GdGe}A3/2B/2{gcd}c{e}A{gcd}ce|
{ag}a2{g}a2{GdG}ae{gcd}c{e}A|
{Gdc}d2{g}f3/2d/2{gcd}c2{g}e3/2c/2|  !
{gBd}B2{g}e2{A}e3/2f/2{g}e3/4d/4{e}c3/4B/4|
{g}A2{GdGe}A3/2B/2{gcd}c{e}A{gcd}ce|
{ag}a2{g}a2{GdG}ae{gcd}c{e}A|  !
{Gdc}d2{g}f3/2d/2{gcd}ce{gcd}c{e}A|
{GdG}B2{g}A3/2B/2{G}A2{gcd}ce|] [|
{ag}a2{g}a2{GdG}ae{gcd}c{e}A|  !
{ag}a2{g}a2{GdG}ae{gcd}ce|
{Gdc}d2{g}f3/2d/2{gcd}c2{g}e3/2c/2|
{gBd}B2{g}e2{A}e3/2f/2{g}e3/4d/4{e}c3/4B/4|  !
{g}A2{GdGe}A3/2B/2{gcd}c{e}A{gcd}ce|
{ag}a2{g}a2{GdG}ae{gcd}c{e}A|
{Gdc}d2{g}f3/2d/2{gcd}ce{gcd}c{e}A|  !
{GdG}B2{g}A3/2B/2{G}A3|]
